X:1
T:RASA SAYANG
C:Lagu Tradisional
O:Ambon;Maluku;Indonesia
L:1/4
Q:1/4=110
M:2/4
K:C
E F | G2 | G2 | c2 | !
w: Ra- sa|sa-|yang|hey!|
B A | G G | E F | G z | !
w: Ra- sa|sa- yang|sa- yang|hey!|
B2 | A A | G F | E G | !
w: Hey!|li- hat|no- na|ja- uh|
C E | D F | B, D | C z :| !
w: Ra- sa|sa- yang|sa- yang|hey!|
